src/core/icons/icon-gui-link.svg

<svg width="16" height="16" viewBox="0 0 16 16" fill="none" xmlns="http://www.w3.org/2000/svg">
<path d="M7.6504 10.9943C7.50158 10.9572 7.35629 10.9074 7.21593 10.8456L4.87765 13.184C4.45229 13.6083 3.833 13.7737 3.25284 13.6179C2.67256 13.4622 2.21933 13.009 2.06367 12.4287C1.90788 11.8486 2.07331 11.2293 2.49759 10.8039L6.06769 7.23381C6.2223 7.07685 6.40904 6.95503 6.61497 6.8768C6.67926 6.83877 6.74987 6.81263 6.82337 6.79945C6.91776 6.76913 7.0158 6.75113 7.1148 6.74588C7.34183 6.72638 7.57047 6.75263 7.78724 6.82323C8.03527 6.90906 8.26093 7.04941 8.44766 7.23381C8.60441 7.38756 8.72795 7.57184 8.81054 7.7752C8.82243 7.7753 8.84033 7.7693 8.85222 7.7693C9.03715 7.74745 9.20912 7.66355 9.34015 7.53134L10.1553 6.71619C10.0111 6.47158 9.83729 6.24574 9.63769 6.04375C9.21919 5.62621 8.69782 5.32655 8.12632 5.17503C8.06975 5.15768 8.01211 5.14386 7.95382 5.13346C7.88096 5.10914 7.80457 5.09704 7.72775 5.09778C7.66464 5.08653 7.60111 5.07861 7.53725 5.07389C7.53575 5.07228 7.53361 5.07143 7.53136 5.07143C7.52911 5.07132 7.52696 5.07228 7.52536 5.07389C7.42303 5.05814 7.31921 5.05418 7.21604 5.062C7.07472 5.06286 6.93361 5.07271 6.79348 5.09178H6.78159L6.61498 5.11557C6.3122 5.18082 6.01852 5.28271 5.74037 5.41909C5.42096 5.57949 5.12964 5.79045 4.87765 6.04372L1.30755 9.61383C0.458775 10.4644 0.127904 11.703 0.439273 12.8636C0.750725 14.0241 1.65727 14.9307 2.81785 15.2421C3.97841 15.5535 5.217 15.2226 6.06759 14.3739L9.34009 11.1014C8.77534 11.1789 8.20074 11.1425 7.65035 10.9942L7.6504 10.9943Z" fill="#03020D"/>
<path d="M14.6953 0.986249C14.0642 0.354761 13.2081 0 12.3153 0C11.4225 0 10.5663 0.354761 9.93528 0.986249L6.66278 4.25875C7.38396 4.15729 8.11907 4.24129 8.79878 4.50272L11.1253 2.17633C11.5504 1.75119 12.1701 1.58511 12.7509 1.74069C13.3316 1.89636 13.7852 2.35001 13.9409 2.93073C14.0965 3.51145 13.9304 4.13117 13.5052 4.55631L11.1789 6.8828L10.8457 7.21592L10.5066 7.55513L9.93539 8.1263H9.93528C9.66614 8.39866 9.31065 8.56914 8.92975 8.60822C8.78704 8.62215 8.64304 8.61819 8.5014 8.59633C8.36158 8.58251 8.22497 8.5464 8.09672 8.48919C7.68798 8.31851 7.36311 7.99356 7.19232 7.5849C6.99239 7.60054 6.80467 7.68701 6.66281 7.82875L5.84766 8.6439C6.13448 9.13707 6.54451 9.54713 7.03759 9.83395C7.16434 9.9112 7.29784 9.97687 7.43626 10.0303C7.57769 10.0959 7.72522 10.1478 7.87663 10.1851C8.67486 10.4001 9.52437 10.3132 10.2625 9.94109C10.4786 9.83277 10.6822 9.70109 10.8694 9.54831L10.8753 9.54242C10.9587 9.47106 11.0478 9.39371 11.1253 9.31635L14.6954 5.74625C15.3269 5.11506 15.6817 4.25899 15.6817 3.36619C15.6817 2.47347 15.3269 1.61729 14.6954 0.98621L14.6953 0.986249Z" fill="#03020D"/>
</svg>

<svg xmlns="http://www.w3.org/2000/svg" fill="none" viewBox="0 0 16 16">
  <g fill="#03020D" clip-path="url(#a)">
    <path d="M7.65 10.994a2.697 2.697 0 0 1-.434-.148l-2.338 2.338a1.683 1.683 0 0 1-2.38-2.38l3.57-3.57c.154-.157.341-.279.547-.357a.626.626 0 0 1 .208-.078 1.701 1.701 0 0 1 .964.024c.248.086.474.226.66.41.157.155.281.339.364.542.011 0 .03-.006.041-.006a.823.823 0 0 0 .488-.238l.815-.815a3.447 3.447 0 0 0-.517-.672 3.358 3.358 0 0 0-1.684-.91.693.693 0 0 0-.226-.036 1.87 1.87 0 0 0-.203-.024 1.359 1.359 0 0 0-.309-.012c-.141 0-.282.01-.423.03h-.011l-.167.024a3.81 3.81 0 0 0-.875.303c-.319.16-.61.371-.862.625l-3.57 3.57a3.366 3.366 0 0 0 4.76 4.76L9.34 11.1a4.266 4.266 0 0 1-1.69-.107Z" />
    <path d="M14.695.986a3.365 3.365 0 0 0-4.76 0L6.663 4.26a4.287 4.287 0 0 1 2.136.244l2.326-2.327a1.683 1.683 0 1 1 2.38 2.38L11.18 6.883l-.333.333-.34.34-.57.57a1.65 1.65 0 0 1-1.435.47 1.31 1.31 0 0 1-.404-.107 1.683 1.683 0 0 1-.905-.904.842.842 0 0 0-.53.244l-.814.815a3.29 3.29 0 0 0 1.588 1.386c.142.066.29.118.44.155a3.36 3.36 0 0 0 2.993-.637l.006-.006c.084-.07.173-.148.25-.226l3.57-3.57a3.365 3.365 0 0 0 0-4.76Z" />
  </g>
  <defs>
    <clipPath id="a">
      <path fill="#fff" d="M0 0h16v16H0z" />
    </clipPath>
  </defs>
</svg>
